!!!COM: Fux, Johann Joseph
!!!OMD: Gradus ad Parnassum Exercise
!!!YEC: CC0 1.0 Universal (Public Domain). Mark Gotham and FourScoreAndMore.org waive all rights to this document.
**kern	**kern	**kern
*part3	*part2	*part1
*staff3	*staff2	*staff1
*I"3	*I"2	*I"1
*I'Pno	*I'Pno	*I'Pno
!!LO:LB:g=z
*clefF4	*clefG2	*clefG2
*k[]	*k[]	*k[]
!!LO:TX:omd:t=
*M4/4	*M4/4	*M4/4
=452	=452	=452
!	!	!LO:TX:a:t=Fig. 156; Species&colon; 5; Modal final&colon; d; Cantus firmus&colon; 2
2r	1d	1a
[2D\	.	.
=453	=453	=453
4D\]	1f	1a
4E\	.	.
4F\	.	.
4G\	.	.
=454	=454	=454
4A\	1e	1cc
4E\	.	.
[2A\	.	.
=455	=455	=455
2A\]	1d	1b
4G\	.	.
4F\	.	.
=456	=456	=456
4E\	1g	1b
4G\	.	.
4F\	.	.
4E\	.	.
=457	=457	=457
4D\	1f	1dd
4E\	.	.
[2F\	.	.
=458	=458	=458
4F\]	1a	1cc
4C/	.	.
[2F\	.	.
=459	=459	=459
2F\]	1g	1cc
[2E\	.	.
=460	=460	=460
4E\]	1f	1a
4AA/	.	.
[2D\	.	.
=461	=461	=461
2D\]	1e	1g
2C#X/	.	.
=462	=462	=462
1D	1d	1f#X
==	==	==
*-	*-	*-
!!!software: music21 v.9.7.1
!!!software: music21 v.9.7.1
!!!software: MuseScore 3.4.2
!!!RDF**kern: > = above
!!!RDF**kern: < = below
